svgs/sharp-regular/sensor-triangle-exclamation.svg

<svg xmlns="http://www.w3.org/2000/svg" viewBox="0 0 640 512"><!--! Font Awesome Pro 6.6.0 by @fontawesome - https://fontawesome.com License - https://fontawesome.com/license (Commercial License) Copyright 2024 Fonticons, Inc. --><path d="M48 80l352 0 0 101.2 48-88L448 80l0-48-48 0L48 32 0 32 0 80 0 432l0 48 48 0 189 0 26.2-48L48 432 48 80zm96 72l0-24-48 0 0 24 0 112 0 24 48 0 0-24 0-112zm96 0l0-24-48 0 0 24 0 112 0 24 48 0 0-24 0-112zm208 8L256 512l384 0L448 160zm16 144l0 64 0 16-32 0 0-16 0-64 0-16 32 0 0 16zM432 416l32 0 0 32-32 0 0-32z"/></svg>

<svg xmlns="http://www.w3.org/2000/svg" viewBox="0 0 640 512"><!--! Font Awesome Pro 6.4.0 by @fontawesome - https://fontawesome.com License - https://fontawesome.com/license (Commercial License) Copyright 2023 Fonticons, Inc. --><path d="M48 80H400V181.2l48-88V80 32H400 48 0V80 432v48H48 237l26.2-48H48V80zm96 72V128H96v24V264v24h48V264 152zm96 0V128H192v24V264v24h48V264 152zm208 8L256 512H640L448 160zm16 144v64 16H432V368 304 288h32v16zM432 416h32v32H432V416z"/></svg>
